X:1
T:Bull, LM
T:Bull, LM
T:Ole Bull (1810-1880)
T:Public Domain Courtesy of the Cyber Hymnal™
C:Ole Bull (1810-1880)
Z:Public Domain
Z:Courtesy of the Cyber Hymnal™
%%score ( 1 2 ) ( 3 4 )
L:1/8
Q:1/4=115
M:4/4
K:Eb
V:1 treble 
V:2 treble 
V:3 bass 
V:4 bass 
V:1
 [EG]2 | ([DG]4 [Gc]2) [GB]2 | ([GB]2 [FA]2) [EG]4 | ([DF]4 [CE]2) C2 | [=B,D]6 [DG]2 | %5
 G4 [Fc]2 [GB]2 | [GB]2 [FA]2 [EG]4 | F6 [DG]2 | [B,E]6 [EG]2 | (G2 A2 [EG]2) [DF]2 | %10
 [DF]2 [CE]2 [=B,D]2 [DG]2 | [CE]6 [EG]2 | [Fe]3 [Fe] [Fd]2 [Ec]2 | ([F=B]2 [DG]2 [CE]2) [CF]2 | %14
 [DG]4 [CE]2 [=B,D]2 | C6 |] %16
V:2
 x2 | x8 | x8 | x6 C2 | x8 | E2 =E2 x4 | x8 | (E4 D2) x2 | x8 | D4 x4 | x8 | x8 | x8 | x8 | x8 | %15
 C6 |] %16
V:3
 [C,C]2 | =B,4 [E,C]2 [=E,C]2 | C4 C4 | (C2 =B,2 [C,C]2) [E,G,]2 | G,6 [G,=B,]2 | %5
 C2 ([B,_D]2 [A,C]2) [=E,C]2 | C4 [C,C]4 | ([A,,C]4 [B,,B,]2) [B,,B,]2 | [E,G,]6 [C,C]2 | %9
 =B,4 [E,C]2 [F,A,]2 | G,2 G,2 G,2 [G,=B,]2 | C6 [C,G,]2 | [=B,,A,]3 [B,,A,] [B,,A,]2 [C,A,]2 | %13
 G,6 [A,,C]2 | [G,,=B,]4 [G,,G,]2 [G,,G,]2 | C,6 |] %16
V:4
 x2 | G,2 F,2 x4 | (F,2 A,2) C4 | G,4 x4 | G,6 x2 | C2 x6 | (F,2 A,2) x4 | x8 | x8 | G,2 F,2 x4 | %10
 G,2 G,2 G,2 x2 | C6 x2 | x8 | (D,2 =B,,2 C,2) x2 | x8 | C,6 |] %16

